!!!OTL: I Wrote My Love a Letter
!!!ONM: 20.
**kern
*clefG2
*k[b-]
*F:
*M4/4
*MM80
{4c
=1
4.f
8a
4.a
8g
=2
4g
4f
4r
4c
=3
2c
4.g
8f#
=4
2g
4r}
{4c
=5
2c
4.g
8g
=6
4g
4a
4r
4f
=7
2f
4.c
8f
=8
2a
4r}
{8a
8b-
=9
4cc
4cc
4a
4f
=10
4c
4c
4r
4f
=11
2a
4.f
8a
=12
2cc
4r}
{4a
=13
2cc
4.cc
8a
=14
2f
4.c
8a
=15
2g
4.f
8e
=16
2.f
4r}
=17||
*M3/4
{4c
4.a
8a
=18
4a
4.g
8r
=19
4c
4.g
8f#
=20
4.g
8r}
{4c
=21
4c
4.g
8f#
=22
4g
4.a
8f#
=23
4f
4.c
8f
=24
4.a
8r}
{8a
8b-
=25
4cc
4.cc
8a
=26
4f
4.c
8f
=27
4a
4.f
8a
=28
4.cc
8r}
{4cc
=29
4cc
4.cc
8a
=30
4f
4c
8a
8a
=31
4g
4.f
8e
=32
2.f}
==
*-
!!!CNT: Folksongs of Maritime Canada
!!!MRD: 1928///-1932///
!!!OCL: Helen Creighton
!!!YOR: Songs and Ballads from Nova Scotia
!!!PPR: J.M. Dent & Sons, Limited
!!!PPP: Toronto, Canada
!!!PDT: 1932///
!!!reprint: Dover Publications, 1992: ISBN 0-486-21703-5
!!!ENC1: Craig Stuart Sapp (music and bibliographic data)                       
!!!ENC2: Marcus Pearce (phrase markings and key designations)                   
!!!ENC3: Darrell Conklin (phrase markings and key designations)   
!!!END: 2002/04/10/
!!!EEV: 2004/06/05
!!!MPN: Miss Muriel Henneberry
!!!PPG: 40
!!!EFL: 20/152
!!!ARE: Canada; Nova Scotia
!!!verses: 2
!!!VTS: 3997166249
